; generated by PrusaSlicer 2.1.1+linux64 on 2020-02-18 at 05:34:59 UTC

; 

; external perimeters extrusion width = 0.45mm
; perimeters extrusion width = 0.45mm
; infill extrusion width = 0.45mm
; solid infill extrusion width = 0.45mm
; top infill extrusion width = 0.40mm
; first layer extrusion width = 0.42mm

M73 P0 R8
M73 Q0 S8
M201 X1000 Y1000 Z1000 E5000 ; sets maximum accelerations, mm/sec^2
M203 X200 Y200 Z12 E120 ; sets maximum feedrates, mm/sec
M204 P1250 R1250 T1250 ; sets acceleration (P, T) and retract acceleration (R), mm/sec^2
M205 X8.00 Y8.00 Z0.40 E4.50 ; sets the jerk limits, mm/sec
M205 S0 T0 ; sets the minimum extruding and travel feed rate, mm/sec
M107
M862.3 P "MK3S" ; printer model check
M862.1 P0.4 ; nozzle diameter check
M115 U3.8.1 ; tell printer latest fw version
G90 ; use absolute coordinates
M83 ; extruder relative mode
M104 S215 ; set extruder temp
M140 S60 ; set bed temp
M190 S60 ; wait for bed temp
M109 S215 ; wait for extruder temp
G28 W ; home all without mesh bed level
G80 ; mesh bed leveling
G1 Y-3.0 F1000.0 ; go outside print area
G92 E0.0
G1 X60.0 E9.0 F1000.0 ; intro line
M73 Q0 S8
M73 P0 R8
G1 X100.0 E12.5 F1000.0 ; intro line
G92 E0.0
M221 S95
G21 ; set units to millimeters
G90 ; use absolute coordinates
M83 ; use relative distances for extrusion
M900 K30 ; Filament gcode
;BEFORE_LAYER_CHANGE
G92 E0.0
;0.2


G1 E-0.80000 F2100.00000
G1 Z0.600 F10800.000
;AFTER_LAYER_CHANGE
;0.2
G1 X85.078 Y84.153
G1 Z0.200
G1 E0.80000 F2100.00000
M204 S1000
G1 F1200
G1 X85.466 Y83.436 E0.02557
G1 X85.855 Y83.032 E0.01758
G1 X86.322 Y82.721 E0.01758
G1 X86.845 Y82.519 E0.01758
G1 X87.403 Y82.436 E0.01771
G1 X112.504 Y82.434 E0.78701
G1 X113.450 Y82.617 E0.03022
G1 X114.263 Y83.136 E0.03022
G1 X114.824 Y83.914 E0.03010
G1 X115.061 Y84.848 E0.03022
G1 X115.065 Y115.044 E0.94676
G1 X114.922 Y115.847 E0.02557
G1 X114.534 Y116.564 E0.02557
G1 X114.133 Y116.979 E0.01808
G1 X113.650 Y117.293 E0.01808
G1 X113.113 Y117.491 E0.01795
G1 X112.541 Y117.565 E0.01808
G1 X87.449 Y117.565 E0.78676
G1 X86.650 Y117.421 E0.02545
G1 X85.936 Y117.034 E0.02545
G1 X85.521 Y116.633 E0.01808
G1 X85.207 Y116.150 E0.01808
G1 X85.008 Y115.609 E0.01808
G1 X84.935 Y115.037 E0.01808
G1 X84.935 Y84.956 E0.94316
G1 X85.068 Y84.213 E0.02369
G1 X85.434 Y84.278 F10800.000
G1 F1200
G1 X85.771 Y83.659 E0.02209
G1 X86.106 Y83.313 E0.01510
G1 X86.505 Y83.051 E0.01498
G1 X86.955 Y82.880 E0.01510
G1 X87.432 Y82.813 E0.01510
G1 X112.504 Y82.811 E0.78610
G1 X113.313 Y82.968 E0.02586
G1 X114.007 Y83.413 E0.02586
G1 X114.488 Y84.084 E0.02586
G1 X114.686 Y84.888 E0.02597
G1 X114.688 Y115.033 E0.94517
G1 X114.565 Y115.724 E0.02202
G1 X114.229 Y116.341 E0.02202
G1 X113.886 Y116.694 E0.01544
G1 X113.475 Y116.959 E0.01532
G1 X113.016 Y117.127 E0.01532
G1 X112.531 Y117.188 E0.01532
G1 X87.463 Y117.188 E0.78599
G1 X86.772 Y117.064 E0.02202
G1 X86.159 Y116.729 E0.02191
G1 X85.806 Y116.386 E0.01544
G1 X85.541 Y115.975 E0.01532
G1 X85.372 Y115.513 E0.01544
G1 X85.312 Y115.024 E0.01544
G1 X85.312 Y84.967 E0.94242
G1 X85.424 Y84.337 E0.02007
G1 F8640
G1 X85.771 Y83.659 E-0.17587
G1 X86.106 Y83.313 E-0.11117
G1 X86.505 Y83.051 E-0.11033
G1 X86.955 Y82.880 E-0.11117
G1 X87.432 Y82.813 E-0.11117
G1 X88.040 Y82.812 E-0.14029
G1 E-0.04000 F2100.00000
G1 Z0.800 F10800.000
G1 X88.087 Y85.587
G1 Z0.200
G1 E0.80000 F2100.00000
G1 F1200
G1 X111.913 Y85.587 E0.74704
G1 X111.913 Y114.413 E0.90381
G1 X88.087 Y114.413 E0.74704
G1 X88.087 Y85.647 E0.90193
G1 X87.710 Y85.210 F10800.000
G1 F1200
G1 X112.290 Y85.210 E0.77069
G1 X112.290 Y114.790 E0.92746
G1 X87.710 Y114.790 E0.77069
G1 X87.710 Y85.270 E0.92558
G1 X88.093 Y85.325 F10800.000
G1 F8640
G1 X91.001 Y85.262 E-0.76000
G1 E-0.04000 F2100.00000
G1 Z0.800 F10800.000
G1 X111.800 Y86.463
G1 Z0.200
G1 E0.80000 F2100.00000
G1 F1200
G1 X111.207 Y85.870 E0.02629
G1 X110.674 Y85.870 E0.01673
G1 X111.630 Y86.826 E0.04243
G1 X111.630 Y87.360 E0.01673
G1 X110.140 Y85.870 E0.06608
G1 X109.607 Y85.870 E0.01673
G1 X111.630 Y87.893 E0.08974
G1 X111.630 Y88.427 E0.01673
G1 X109.073 Y85.870 E0.11340
G1 X108.540 Y85.870 E0.01673
G1 X111.630 Y88.960 E0.13706
G1 X111.630 Y89.493 E0.01673
G1 X108.007 Y85.870 E0.16072
G1 X107.473 Y85.870 E0.01673
G1 X111.630 Y90.027 E0.18438
G1 X111.630 Y90.560 E0.01673
G1 X106.940 Y85.870 E0.20804
G1 X106.406 Y85.870 E0.01673
G1 X111.630 Y91.094 E0.23170
G1 X111.630 Y91.627 E0.01673
G1 X105.873 Y85.870 E0.25536
G1 X105.339 Y85.870 E0.01673
G1 X111.630 Y92.161 E0.27901
G1 X111.630 Y92.694 E0.01673
G1 X104.806 Y85.870 E0.30267
G1 X104.273 Y85.870 E0.01673
G1 X111.630 Y93.227 E0.32633
G1 X111.630 Y93.761 E0.01673
G1 X103.739 Y85.870 E0.34999
G1 X103.206 Y85.870 E0.01673
G1 X111.630 Y94.294 E0.37365
G1 X111.630 Y94.828 E0.01673
G1 X102.672 Y85.870 E0.39731
G1 X102.139 Y85.870 E0.01673
G1 X111.630 Y95.361 E0.42097
G1 X111.630 Y95.894 E0.01673
G1 X101.606 Y85.870 E0.44463
G1 X101.072 Y85.870 E0.01673
G1 X111.630 Y96.428 E0.46828
G1 X111.630 Y96.961 E0.01673
G1 X100.539 Y85.870 E0.49194
G1 X100.005 Y85.870 E0.01673
G1 X111.630 Y97.495 E0.51560
G1 X111.630 Y98.028 E0.01673
G1 X99.472 Y85.870 E0.53926
G1 X98.938 Y85.870 E0.01673
G1 X111.630 Y98.562 E0.56292
G1 X111.630 Y99.095 E0.01673
G1 X98.405 Y85.870 E0.58658
G1 X97.872 Y85.870 E0.01673
G1 X111.630 Y99.628 E0.61024
G1 X111.630 Y100.162 E0.01673
G1 X97.338 Y85.870 E0.63390
G1 X96.805 Y85.870 E0.01673
G1 X111.630 Y100.695 E0.65756
G1 X111.630 Y101.229 E0.01673
G1 X96.271 Y85.870 E0.68121
G1 X95.738 Y85.870 E0.01673
G1 X111.630 Y101.762 E0.70487
G1 X111.630 Y102.295 E0.01673
G1 X95.205 Y85.870 E0.72853
G1 X94.671 Y85.870 E0.01673
G1 X111.630 Y102.829 E0.75219
G1 X111.630 Y103.362 E0.01673
G1 X94.138 Y85.870 E0.77585
G1 X93.604 Y85.870 E0.01673
G1 X111.630 Y103.896 E0.79951
G1 X111.630 Y104.429 E0.01673
G1 X93.071 Y85.870 E0.82317
G1 X92.538 Y85.870 E0.01673
G1 X111.630 Y104.962 E0.84683
G1 X111.630 Y105.496 E0.01673
G1 X92.004 Y85.870 E0.87049
G1 X91.471 Y85.870 E0.01673
G1 X111.630 Y106.029 E0.89414
G1 X111.630 Y106.563 E0.01673
G1 X90.937 Y85.870 E0.91780
G1 X90.404 Y85.870 E0.01673
G1 X111.630 Y107.096 E0.94146
G1 X111.630 Y107.630 E0.01673
G1 X89.870 Y85.870 E0.96512
M73 Q13 S7
M73 P13 R7
G1 X89.337 Y85.870 E0.01673
G1 X111.630 Y108.163 E0.98878
G1 X111.630 Y108.696 E0.01673
G1 X88.804 Y85.870 E1.01244
G1 X88.370 Y85.870 E0.01360
G1 X88.370 Y85.970 E0.00313
G1 X111.630 Y109.230 E1.03168
G1 X111.630 Y109.763 E0.01673
G1 X88.370 Y86.503 E1.03168
G1 X88.370 Y87.036 E0.01673
G1 X111.630 Y110.297 E1.03168
G1 X111.630 Y110.830 E0.01673
G1 X88.370 Y87.570 E1.03168
G1 X88.370 Y88.103 E0.01673
G1 X111.630 Y111.363 E1.03168
G1 X111.630 Y111.897 E0.01673
G1 X88.370 Y88.637 E1.03168
G1 X88.370 Y89.170 E0.01673
G1 X111.630 Y112.430 E1.03168
G1 X111.630 Y112.964 E0.01673
G1 X88.370 Y89.703 E1.03168
G1 X88.370 Y90.237 E0.01673
G1 X111.630 Y113.497 E1.03168
G1 X111.630 Y114.031 E0.01673
G1 X88.370 Y90.770 E1.03168
G1 X88.370 Y91.304 E0.01673
G1 X111.196 Y114.130 E1.01244
G1 X110.663 Y114.130 E0.01673
G1 X88.370 Y91.837 E0.98878
G1 X88.370 Y92.371 E0.01673
G1 X110.129 Y114.130 E0.96512
G1 X109.596 Y114.130 E0.01673
G1 X88.370 Y92.904 E0.94146
G1 X88.370 Y93.437 E0.01673
G1 X109.063 Y114.130 E0.91780
G1 X108.529 Y114.130 E0.01673
G1 X88.370 Y93.971 E0.89414
G1 X88.370 Y94.504 E0.01673
G1 X107.996 Y114.130 E0.87048
G1 X107.462 Y114.130 E0.01673
G1 X88.370 Y95.038 E0.84682
G1 X88.370 Y95.571 E0.01673
G1 X106.929 Y114.130 E0.82316
G1 X106.396 Y114.130 E0.01673
G1 X88.370 Y96.104 E0.79951
G1 X88.370 Y96.638 E0.01673
G1 X105.862 Y114.130 E0.77585
G1 X105.329 Y114.130 E0.01673
G1 X88.370 Y97.171 E0.75219
G1 X88.370 Y97.705 E0.01673
G1 X104.795 Y114.130 E0.72853
G1 X104.262 Y114.130 E0.01673
G1 X88.370 Y98.238 E0.70487
G1 X88.370 Y98.771 E0.01673
G1 X103.729 Y114.130 E0.68121
G1 X103.195 Y114.130 E0.01673
G1 X88.370 Y99.305 E0.65755
G1 X88.370 Y99.838 E0.01673
G1 X102.662 Y114.130 E0.63389
G1 X102.128 Y114.130 E0.01673
G1 X88.370 Y100.372 E0.61023
G1 X88.370 Y100.905 E0.01673
G1 X101.595 Y114.130 E0.58658
G1 X101.061 Y114.130 E0.01673
G1 X88.370 Y101.439 E0.56292
G1 X88.370 Y101.972 E0.01673
G1 X100.528 Y114.130 E0.53926
G1 X99.995 Y114.130 E0.01673
G1 X88.370 Y102.505 E0.51560
G1 X88.370 Y103.039 E0.01673
G1 X99.461 Y114.130 E0.49194
G1 X98.928 Y114.130 E0.01673
G1 X88.370 Y103.572 E0.46828
G1 X88.370 Y104.106 E0.01673
G1 X98.394 Y114.130 E0.44462
G1 X97.861 Y114.130 E0.01673
G1 X88.370 Y104.639 E0.42096
G1 X88.370 Y105.172 E0.01673
G1 X97.328 Y114.130 E0.39731
G1 X96.794 Y114.130 E0.01673
G1 X88.370 Y105.706 E0.37365
G1 X88.370 Y106.239 E0.01673
G1 X96.261 Y114.130 E0.34999
G1 X95.727 Y114.130 E0.01673
G1 X88.370 Y106.773 E0.32633
G1 X88.370 Y107.306 E0.01673
G1 X95.194 Y114.130 E0.30267
G1 X94.660 Y114.130 E0.01673
G1 X88.370 Y107.840 E0.27901
G1 X88.370 Y108.373 E0.01673
G1 X94.127 Y114.130 E0.25535
G1 X93.594 Y114.130 E0.01673
G1 X88.370 Y108.906 E0.23169
G1 X88.370 Y109.440 E0.01673
G1 X93.060 Y114.130 E0.20803
G1 X92.527 Y114.130 E0.01673
G1 X88.370 Y109.973 E0.18438
G1 X88.370 Y110.507 E0.01673
G1 X91.993 Y114.130 E0.16072
G1 X91.460 Y114.130 E0.01673
G1 X88.370 Y111.040 E0.13706
G1 X88.370 Y111.573 E0.01673
G1 X90.927 Y114.130 E0.11340
G1 X90.393 Y114.130 E0.01673
G1 X88.370 Y112.107 E0.08974
G1 X88.370 Y112.640 E0.01673
G1 X89.860 Y114.130 E0.06608
G1 X89.326 Y114.130 E0.01673
G1 X88.370 Y113.174 E0.04242
G1 X88.370 Y113.707 E0.01673
G1 X88.963 Y114.300 E0.02629
M106 S255
;BEFORE_LAYER_CHANGE
G92 E0.0
;0.35


G1 F8640
G1 X88.370 Y113.707 E-0.19355
G1 X88.370 Y113.174 E-0.12317
G1 X89.326 Y114.130 E-0.31233
G1 X89.860 Y114.130 E-0.12317
G1 X89.836 Y114.106 E-0.00778
G1 E-0.04000 F2100.00000
G1 Z0.800 F10800.000
;AFTER_LAYER_CHANGE
;0.35
G1 X86.650 Y117.421
G1 Z0.350
G1 E0.80000 F2100.00000
G1 F3000
G1 X85.936 Y117.034 E0.01963
G1 X85.521 Y116.633 E0.01394
G1 X85.207 Y116.150 E0.01394
G1 X85.008 Y115.609 E0.01394
G1 X84.935 Y115.037 E0.01394
G1 X84.935 Y84.956 E0.72750
G1 X85.078 Y84.153 E0.01973
G1 X85.466 Y83.436 E0.01973
G1 X85.855 Y83.032 E0.01356
G1 X86.322 Y82.721 E0.01356
G1 X86.845 Y82.519 E0.01356
G1 X87.403 Y82.436 E0.01366
G1 X112.504 Y82.434 E0.60705
G1 X113.450 Y82.617 E0.02331
G1 X114.263 Y83.136 E0.02331
G1 X114.824 Y83.914 E0.02321
G1 X115.061 Y84.848 E0.02331
G1 X115.065 Y115.044 E0.73027
G1 X114.922 Y115.847 E0.01973
G1 X114.534 Y116.564 E0.01973
G1 X114.133 Y116.979 E0.01394
G1 X113.650 Y117.293 E0.01394
G1 X113.113 Y117.491 E0.01385
G1 X112.541 Y117.565 E0.01394
G1 X87.449 Y117.565 E0.60686
M73 Q25 S6
M73 P25 R6
G1 X86.709 Y117.431 E0.01818
G1 F8640
G1 X85.936 Y117.034 E-0.20064
G1 X85.521 Y116.633 E-0.13312
G1 X85.207 Y116.150 E-0.13312
G1 X85.008 Y115.609 E-0.13312
G1 X84.935 Y115.037 E-0.13312
G1 X84.935 Y114.921 E-0.02687
G1 E-0.04000 F2100.00000
G1 Z0.950 F10800.000
G1 X88.143 Y114.357
G1 Z0.350
G1 E0.80000 F2100.00000
M204 S800
G1 F2700
G1 X88.143 Y85.643 E0.74818
G1 X111.857 Y85.643 E0.61790
G1 X111.857 Y114.357 E0.74818
G1 X88.203 Y114.357 E0.61633
M204 S1000
G1 X87.725 Y114.775 F10800.000
M204 S800
G1 F1500
G1 X87.725 Y85.225 E0.76995
G1 X112.275 Y85.225 E0.63967
G1 X112.275 Y114.775 E0.76995
G1 X87.785 Y114.775 E0.63811
M204 S1000
G1 X87.817 Y114.386 F10800.000
G1 F8640
G1 X87.778 Y111.484 E-0.76000
G1 E-0.04000 F2100.00000
G1 Z0.950 F10800.000
G1 X110.887 Y114.232
G1 Z0.350
G1 E0.80000 F2100.00000
G1 F4800
G1 X111.544 Y113.575 E0.02421
G1 X111.544 Y112.984 E0.01540
G1 X110.484 Y114.044 E0.03906
G1 X109.893 Y114.044 E0.01540
G1 X111.544 Y112.393 E0.06085
G1 X111.544 Y111.802 E0.01540
G1 X109.302 Y114.044 E0.08263
G1 X108.711 Y114.044 E0.01540
G1 X111.544 Y111.211 E0.10442
G1 X111.544 Y110.620 E0.01540
G1 X108.120 Y114.044 E0.12620
G1 X107.529 Y114.044 E0.01540
G1 X111.544 Y110.029 E0.14799
G1 X111.544 Y109.438 E0.01540
G1 X106.938 Y114.044 E0.16977
G1 X106.347 Y114.044 E0.01540
G1 X111.544 Y108.847 E0.19156
G1 X111.544 Y108.256 E0.01540
G1 X105.756 Y114.044 E0.21334
G1 X105.165 Y114.044 E0.01540
G1 X111.544 Y107.665 E0.23513
G1 X111.544 Y107.074 E0.01540
G1 X104.574 Y114.044 E0.25691
G1 X103.983 Y114.044 E0.01540
G1 X111.544 Y106.483 E0.27870
G1 X111.544 Y105.892 E0.01540
G1 X103.392 Y114.044 E0.30048
G1 X102.801 Y114.044 E0.01540
G1 X111.544 Y105.301 E0.32226
G1 X111.544 Y104.710 E0.01540
G1 X102.210 Y114.044 E0.34405
G1 X101.618 Y114.044 E0.01540
G1 X111.544 Y104.118 E0.36583
G1 X111.544 Y103.527 E0.01540
G1 X101.027 Y114.044 E0.38762
G1 X100.436 Y114.044 E0.01540
G1 X111.544 Y102.936 E0.40940
G1 X111.544 Y102.345 E0.01540
G1 X99.845 Y114.044 E0.43119
G1 X99.254 Y114.044 E0.01540
G1 X111.544 Y101.754 E0.45297
G1 X111.544 Y101.163 E0.01540
G1 X98.663 Y114.044 E0.47476
G1 X98.072 Y114.044 E0.01540
G1 X111.544 Y100.572 E0.49654
G1 X111.544 Y99.981 E0.01540
G1 X97.481 Y114.044 E0.51833
G1 X96.890 Y114.044 E0.01540
G1 X111.544 Y99.390 E0.54011
G1 X111.544 Y98.799 E0.01540
G1 X96.299 Y114.044 E0.56190
G1 X95.708 Y114.044 E0.01540
G1 X111.544 Y98.208 E0.58368
G1 X111.544 Y97.617 E0.01540
G1 X95.117 Y114.044 E0.60546
G1 X94.526 Y114.044 E0.01540
G1 X111.544 Y97.026 E0.62725
G1 X111.544 Y96.435 E0.01540
G1 X93.935 Y114.044 E0.64903
G1 X93.344 Y114.044 E0.01540
G1 X111.544 Y95.844 E0.67082
G1 X111.544 Y95.253 E0.01540
G1 X92.753 Y114.044 E0.69260
G1 X92.162 Y114.044 E0.01540
G1 X111.544 Y94.662 E0.71439
G1 X111.544 Y94.071 E0.01540
G1 X91.571 Y114.044 E0.73617
G1 X90.980 Y114.044 E0.01540
G1 X111.544 Y93.480 E0.75796
G1 X111.544 Y92.889 E0.01540
G1 X90.389 Y114.044 E0.77974
G1 X89.798 Y114.044 E0.01540
G1 X111.544 Y92.298 E0.80153
G1 X111.544 Y91.707 E0.01540
G1 X89.207 Y114.044 E0.82331
G1 X88.616 Y114.044 E0.01540
G1 X111.544 Y91.116 E0.84510
G1 X111.544 Y90.525 E0.01540
G1 X88.456 Y113.612 E0.85098
G1 X88.456 Y113.021 E0.01540
G1 X111.544 Y89.934 E0.85098
G1 X111.544 Y89.343 E0.01540
G1 X88.456 Y112.430 E0.85098
G1 X88.456 Y111.839 E0.01540
G1 X111.544 Y88.752 E0.85098
G1 X111.544 Y88.161 E0.01540
G1 X88.456 Y111.248 E0.85098
G1 X88.456 Y110.657 E0.01540
G1 X111.544 Y87.570 E0.85098
G1 X111.544 Y86.979 E0.01540
G1 X88.456 Y110.066 E0.85098
G1 X88.456 Y109.475 E0.01540
G1 X111.544 Y86.387 E0.85098
G1 X111.544 Y85.956 E0.01124
G1 X111.384 Y85.956 E0.00416
G1 X88.456 Y108.884 E0.84509
G1 X88.456 Y108.293 E0.01540
G1 X110.793 Y85.956 E0.82331
G1 X110.202 Y85.956 E0.01540
G1 X88.456 Y107.702 E0.80152
G1 X88.456 Y107.111 E0.01540
G1 X109.611 Y85.956 E0.77974
G1 X109.020 Y85.956 E0.01540
G1 X88.456 Y106.520 E0.75795
G1 X88.456 Y105.929 E0.01540
G1 X108.429 Y85.956 E0.73617
G1 X107.838 Y85.956 E0.01540
G1 X88.456 Y105.338 E0.71438
G1 X88.456 Y104.747 E0.01540
G1 X107.247 Y85.956 E0.69260
G1 X106.656 Y85.956 E0.01540
G1 X88.456 Y104.156 E0.67081
G1 X88.456 Y103.565 E0.01540
G1 X106.065 Y85.956 E0.64903
G1 X105.474 Y85.956 E0.01540
G1 X88.456 Y102.974 E0.62724
G1 X88.456 Y102.383 E0.01540
G1 X104.883 Y85.956 E0.60546
G1 X104.292 Y85.956 E0.01540
G1 X88.456 Y101.792 E0.58368
G1 X88.456 Y101.201 E0.01540
G1 X103.701 Y85.956 E0.56189
G1 X103.110 Y85.956 E0.01540
G1 X88.456 Y100.610 E0.54011
G1 X88.456 Y100.019 E0.01540
G1 X102.519 Y85.956 E0.51832
G1 X101.928 Y85.956 E0.01540
G1 X88.456 Y99.428 E0.49654
G1 X88.456 Y98.837 E0.01540
G1 X101.337 Y85.956 E0.47475
G1 X100.746 Y85.956 E0.01540
G1 X88.456 Y98.246 E0.45297
G1 X88.456 Y97.654 E0.01540
G1 X100.154 Y85.956 E0.43118
G1 X99.563 Y85.956 E0.01540
G1 X88.456 Y97.063 E0.40940
G1 X88.456 Y96.472 E0.01540
G1 X98.972 Y85.956 E0.38761
G1 X98.381 Y85.956 E0.01540
G1 X88.456 Y95.881 E0.36583
G1 X88.456 Y95.290 E0.01540
G1 X97.790 Y85.956 E0.34404
G1 X97.199 Y85.956 E0.01540
G1 X88.456 Y94.699 E0.32226
G1 X88.456 Y94.108 E0.01540
G1 X96.608 Y85.956 E0.30048
G1 X96.017 Y85.956 E0.01540
G1 X88.456 Y93.517 E0.27869
G1 X88.456 Y92.926 E0.01540
G1 X95.426 Y85.956 E0.25691
G1 X94.835 Y85.956 E0.01540
G1 X88.456 Y92.335 E0.23512
G1 X88.456 Y91.744 E0.01540
G1 X94.244 Y85.956 E0.21334
G1 X93.653 Y85.956 E0.01540
G1 X88.456 Y91.153 E0.19155
G1 X88.456 Y90.562 E0.01540
G1 X93.062 Y85.956 E0.16977
G1 X92.471 Y85.956 E0.01540
G1 X88.456 Y89.971 E0.14798
G1 X88.456 Y89.380 E0.01540
