; generated by PrusaSlicer 2.2.0-alpha4+win64 on 2020-02-21 at 01:03:46 UTC

; 

; external perimeters extrusion width = 0.45mm
; perimeters extrusion width = 0.45mm
; infill extrusion width = 0.45mm
; solid infill extrusion width = 0.45mm
; top infill extrusion width = 0.40mm
; first layer extrusion width = 0.42mm

M201 X500 Y500 Z100 E5000 ; sets maximum accelerations, mm/sec^2
M203 X500 Y500 Z10 E60 ; sets maximum feedrates, mm/sec
M204 P500 R1000 T500 ; sets acceleration (P, T) and retract acceleration (R), mm/sec^2
M205 X8.00 Y8.00 Z0.40 E5.00 ; sets the jerk limits, mm/sec
M205 S0 T0 ; sets the minimum extruding and travel feed rate, mm/sec
M107
G90 ; use absolute coordinates
M83 ; extruder relative mode
M104 S210 ; set extruder temp
M140 S50 ; set bed temp
M190 S50 ; wait for bed temp
M109 S210 ; wait for extruder temp
G28 ; home all
G1 Z2 F240
G1 X2 Y10 F3000
G1 Z0.28 F240
G92 E0.0
G1 Y190 E15.0 F1500.0 ; intro line
G1 X2.3 F5000
G1 Y10 E30 F1200.0 ; intro line
G92 E0.0
G21 ; set units to millimeters
G90 ; use absolute coordinates
M83 ; use relative distances for extrusion
; Filament gcode
;BEFORE_LAYER_CHANGE
;0.2


G1 E-5.00000 F3600.00000
G1 Z0.200 F9000.000
;AFTER_LAYER_CHANGE
;0.2
G1 X94.899 Y94.095
G1 E5.00000 F2400.00000
G1 F1200.000
G1 X95.311 Y93.329 E0.02727
G1 X95.726 Y92.893 E0.01886
G1 X96.229 Y92.557 E0.01899
G1 X96.790 Y92.339 E0.01886
G1 X97.389 Y92.248 E0.01899
G1 X122.504 Y92.246 E0.78748
G1 X123.517 Y92.440 E0.03233
G1 X124.387 Y92.994 E0.03233
G1 X124.993 Y93.828 E0.03233
G1 X125.249 Y94.827 E0.03233
G1 X125.254 Y125.049 E0.94759
G1 X125.101 Y125.905 E0.02727
G1 X124.689 Y126.671 E0.02727
G1 X124.262 Y127.117 E0.01937
G1 X123.742 Y127.458 E0.01950
G1 X123.162 Y127.673 E0.01937
G1 X122.550 Y127.754 E0.01937
G1 X97.443 Y127.754 E0.78722
G1 X96.591 Y127.600 E0.02714
G1 X95.829 Y127.189 E0.02714
G1 X95.380 Y126.758 E0.01950
G1 X95.040 Y126.238 E0.01950
G1 X94.826 Y125.658 E0.01937
G1 X94.746 Y125.042 E0.01950
G1 X94.746 Y94.951 E0.94348
G1 X94.888 Y94.154 E0.02539
G1 X95.256 Y94.219 F9000.000
G1 F1200.000
G1 X95.618 Y93.548 E0.02390
G1 X95.979 Y93.173 E0.01633
G1 X96.417 Y92.884 E0.01645
G1 X96.904 Y92.699 E0.01633
G1 X97.419 Y92.624 E0.01633
G1 X122.504 Y92.623 E0.78652
G1 X123.381 Y92.792 E0.02802
G1 X124.134 Y93.274 E0.02802
G1 X124.656 Y93.999 E0.02802
G1 X124.873 Y94.869 E0.02813
G1 X124.877 Y125.038 E0.94592
G1 X124.744 Y125.785 E0.02378
G1 X124.382 Y126.452 E0.02378
G1 X124.012 Y126.834 E0.01669
G1 X123.563 Y127.126 E0.01680
G1 X123.063 Y127.309 E0.01669
G1 X122.535 Y127.377 E0.01668
G1 X97.454 Y127.377 E0.78640
G1 X96.712 Y127.243 E0.02367
G1 X96.048 Y126.882 E0.02367
G1 X95.666 Y126.512 E0.01669
G1 X95.374 Y126.063 E0.01680
G1 X95.191 Y125.563 E0.01669
G1 X95.123 Y125.032 E0.01680
G1 X95.123 Y94.962 E0.94281
G1 X95.245 Y94.278 E0.02178
G1 E-3.50000 F3600.00000
G1 F7200.000
G1 X95.618 Y93.548 E-0.38931
G1 X95.979 Y93.173 E-0.24737
G1 X96.417 Y92.884 E-0.24917
G1 X96.904 Y92.699 E-0.24737
G1 X97.419 Y92.624 E-0.24737
G1 X97.512 Y92.624 E-0.04440
G1 E-0.07500 F3600.00000
G1 X98.087 Y95.587 F9000.000
G1 E5.00000 F2400.00000
G1 F1200.000
G1 X121.913 Y95.587 E0.74704
G1 X121.913 Y124.413 E0.90381
G1 X98.087 Y124.413 E0.74704
G1 X98.087 Y95.647 E0.90193
G1 X97.710 Y95.210 F9000.000
G1 F1200.000
G1 X122.290 Y95.210 E0.77069
G1 X122.290 Y124.790 E0.92746
G1 X97.710 Y124.790 E0.77069
G1 X97.710 Y95.270 E0.92558
G1 X98.093 Y95.325 F9000.000
G1 E-3.50000 F3600.00000
G1 F7200.000
G1 X100.710 Y95.263 E-1.42500
G1 E-0.07500 F3600.00000
G1 X98.963 Y124.300 F9000.000
G1 E5.00000 F2400.00000
G1 F1200.000
G1 X98.370 Y123.707 E0.02629
G1 X98.370 Y123.174 E0.01673
G1 X99.326 Y124.130 E0.04242
G1 X99.860 Y124.130 E0.01673
G1 X98.370 Y122.640 E0.06608
G1 X98.370 Y122.107 E0.01673
G1 X100.393 Y124.130 E0.08974
G1 X100.927 Y124.130 E0.01673
G1 X98.370 Y121.573 E0.11340
G1 X98.370 Y121.040 E0.01673
G1 X101.460 Y124.130 E0.13706
G1 X101.993 Y124.130 E0.01673
G1 X98.370 Y120.507 E0.16071
G1 X98.370 Y119.973 E0.01673
G1 X102.527 Y124.130 E0.18437
G1 X103.060 Y124.130 E0.01673
G1 X98.370 Y119.440 E0.20803
G1 X98.370 Y118.906 E0.01673
G1 X103.594 Y124.130 E0.23169
G1 X104.127 Y124.130 E0.01673
G1 X98.370 Y118.373 E0.25535
G1 X98.370 Y117.840 E0.01673
G1 X104.660 Y124.130 E0.27901
G1 X105.194 Y124.130 E0.01673
G1 X98.370 Y117.306 E0.30267
G1 X98.370 Y116.773 E0.01673
G1 X105.727 Y124.130 E0.32633
G1 X106.261 Y124.130 E0.01673
G1 X98.370 Y116.239 E0.34999
G1 X98.370 Y115.706 E0.01673
G1 X106.794 Y124.130 E0.37364
G1 X107.328 Y124.130 E0.01673
G1 X98.370 Y115.172 E0.39730
G1 X98.370 Y114.639 E0.01673
G1 X107.861 Y124.130 E0.42096
G1 X108.394 Y124.130 E0.01673
G1 X98.370 Y114.106 E0.44462
G1 X98.370 Y113.572 E0.01673
G1 X108.928 Y124.130 E0.46828
G1 X109.461 Y124.130 E0.01673
G1 X98.370 Y113.039 E0.49194
G1 X98.370 Y112.505 E0.01673
G1 X109.995 Y124.130 E0.51560
G1 X110.528 Y124.130 E0.01673
G1 X98.370 Y111.972 E0.53926
G1 X98.370 Y111.439 E0.01673
G1 X111.061 Y124.130 E0.56292
G1 X111.595 Y124.130 E0.01673
G1 X98.370 Y110.905 E0.58657
G1 X98.370 Y110.372 E0.01673
G1 X112.128 Y124.130 E0.61023
G1 X112.662 Y124.130 E0.01673
G1 X98.370 Y109.838 E0.63389
G1 X98.370 Y109.305 E0.01673
G1 X113.195 Y124.130 E0.65755
G1 X113.728 Y124.130 E0.01673
G1 X98.370 Y108.772 E0.68121
G1 X98.370 Y108.238 E0.01673
G1 X114.262 Y124.130 E0.70487
G1 X114.795 Y124.130 E0.01673
G1 X98.370 Y107.705 E0.72853
G1 X98.370 Y107.171 E0.01673
G1 X115.329 Y124.130 E0.75219
G1 X115.862 Y124.130 E0.01673
G1 X98.370 Y106.638 E0.77584
G1 X98.370 Y106.104 E0.01673
G1 X116.396 Y124.130 E0.79950
G1 X116.929 Y124.130 E0.01673
G1 X98.370 Y105.571 E0.82316
G1 X98.370 Y105.038 E0.01673
G1 X117.462 Y124.130 E0.84682
G1 X117.996 Y124.130 E0.01673
G1 X98.370 Y104.504 E0.87048
G1 X98.370 Y103.971 E0.01673
G1 X118.529 Y124.130 E0.89414
G1 X119.063 Y124.130 E0.01673
G1 X98.370 Y103.437 E0.91780
G1 X98.370 Y102.904 E0.01673
G1 X119.596 Y124.130 E0.94146
G1 X120.129 Y124.130 E0.01673
G1 X98.370 Y102.371 E0.96512
G1 X98.370 Y101.837 E0.01673
G1 X120.663 Y124.130 E0.98877
G1 X121.196 Y124.130 E0.01673
G1 X98.370 Y101.304 E1.01243
G1 X98.370 Y100.770 E0.01673
G1 X121.630 Y124.031 E1.03168
G1 X121.630 Y123.497 E0.01673
G1 X98.370 Y100.237 E1.03168
G1 X98.370 Y99.703 E0.01673
G1 X121.630 Y122.964 E1.03168
G1 X121.630 Y122.430 E0.01673
G1 X98.370 Y99.170 E1.03168
G1 X98.370 Y98.637 E0.01673
G1 X121.630 Y121.897 E1.03168
G1 X121.630 Y121.363 E0.01673
G1 X98.370 Y98.103 E1.03168
G1 X98.370 Y97.570 E0.01673
G1 X121.630 Y120.830 E1.03168
G1 X121.630 Y120.297 E0.01673
G1 X98.370 Y97.036 E1.03168
G1 X98.370 Y96.503 E0.01673
G1 X121.630 Y119.763 E1.03168
G1 X121.630 Y119.230 E0.01673
G1 X98.370 Y95.970 E1.03168
G1 X98.370 Y95.870 E0.00313
G1 X98.804 Y95.870 E0.01360
G1 X121.630 Y118.696 E1.01244
G1 X121.630 Y118.163 E0.01673
G1 X99.337 Y95.870 E0.98878
G1 X99.870 Y95.870 E0.01673
G1 X121.630 Y117.630 E0.96512
G1 X121.630 Y117.096 E0.01673
G1 X100.404 Y95.870 E0.94146
G1 X100.937 Y95.870 E0.01673
G1 X121.630 Y116.563 E0.91780
G1 X121.630 Y116.029 E0.01673
G1 X101.471 Y95.870 E0.89414
G1 X102.004 Y95.870 E0.01673
G1 X121.630 Y115.496 E0.87049
G1 X121.630 Y114.962 E0.01673
G1 X102.537 Y95.870 E0.84683
G1 X103.071 Y95.870 E0.01673
G1 X121.630 Y114.429 E0.82317
G1 X121.630 Y113.896 E0.01673
G1 X103.604 Y95.870 E0.79951
G1 X104.138 Y95.870 E0.01673
G1 X121.630 Y113.362 E0.77585
G1 X121.630 Y112.829 E0.01673
G1 X104.671 Y95.870 E0.75219
G1 X105.205 Y95.870 E0.01673
G1 X121.630 Y112.295 E0.72853
G1 X121.630 Y111.762 E0.01673
G1 X105.738 Y95.870 E0.70487
G1 X106.271 Y95.870 E0.01673
G1 X121.630 Y111.229 E0.68121
G1 X121.630 Y110.695 E0.01673
G1 X106.805 Y95.870 E0.65756
G1 X107.338 Y95.870 E0.01673
G1 X121.630 Y110.162 E0.63390
G1 X121.630 Y109.628 E0.01673
G1 X107.872 Y95.870 E0.61024
G1 X108.405 Y95.870 E0.01673
G1 X121.630 Y109.095 E0.58658
G1 X121.630 Y108.562 E0.01673
G1 X108.938 Y95.870 E0.56292
G1 X109.472 Y95.870 E0.01673
G1 X121.630 Y108.028 E0.53926
G1 X121.630 Y107.495 E0.01673
G1 X110.005 Y95.870 E0.51560
G1 X110.539 Y95.870 E0.01673
G1 X121.630 Y106.961 E0.49194
G1 X121.630 Y106.428 E0.01673
G1 X111.072 Y95.870 E0.46828
G1 X111.606 Y95.870 E0.01673
G1 X121.630 Y105.894 E0.44463
G1 X121.630 Y105.361 E0.01673
G1 X112.139 Y95.870 E0.42097
G1 X112.672 Y95.870 E0.01673
G1 X121.630 Y104.828 E0.39731
G1 X121.630 Y104.294 E0.01673
G1 X113.206 Y95.870 E0.37365
G1 X113.739 Y95.870 E0.01673
G1 X121.630 Y103.761 E0.34999
G1 X121.630 Y103.227 E0.01673
G1 X114.273 Y95.870 E0.32633
G1 X114.806 Y95.870 E0.01673
G1 X121.630 Y102.694 E0.30267
G1 X121.630 Y102.161 E0.01673
G1 X115.339 Y95.870 E0.27901
G1 X115.873 Y95.870 E0.01673
G1 X121.630 Y101.627 E0.25536
G1 X121.630 Y101.094 E0.01673
G1 X116.406 Y95.870 E0.23170
G1 X116.940 Y95.870 E0.01673
G1 X121.630 Y100.560 E0.20804
G1 X121.630 Y100.027 E0.01673
G1 X117.473 Y95.870 E0.18438
G1 X118.007 Y95.870 E0.01673
G1 X121.630 Y99.493 E0.16072
G1 X121.630 Y98.960 E0.01673
G1 X118.540 Y95.870 E0.13706
G1 X119.073 Y95.870 E0.01673
G1 X121.630 Y98.427 E0.11340
G1 X121.630 Y97.893 E0.01673
G1 X119.607 Y95.870 E0.08974
G1 X120.140 Y95.870 E0.01673
G1 X121.630 Y97.360 E0.06608
G1 X121.630 Y96.826 E0.01673
G1 X120.674 Y95.870 E0.04243
G1 X121.207 Y95.870 E0.01673
G1 X121.800 Y96.463 E0.02629
M106 S255
;BEFORE_LAYER_CHANGE
;0.4


G1 E-3.50000 F3600.00000
G1 F7200.000
G1 X121.207 Y95.870 E-0.39822
G1 X120.674 Y95.870 E-0.25337
G1 X121.630 Y96.826 E-0.64255
G1 X121.630 Y97.102 E-0.13086
G1 E-0.07500 F3600.00000
G1 Z0.400 F9000.000
;AFTER_LAYER_CHANGE
;0.4
M104 S205 ; set temperature
M140 S45 ; set bed temperature
G1 X124.993 Y93.828
G1 E5.00000 F2400.00000
G1 X125.249 Y94.827 E0.03233
G1 X125.254 Y125.049 E0.94759
G1 X125.101 Y125.905 E0.02727
G1 X124.689 Y126.671 E0.02727
G1 X124.262 Y127.117 E0.01937
G1 X123.742 Y127.458 E0.01950
G1 X123.162 Y127.673 E0.01937
G1 X122.550 Y127.754 E0.01937
G1 X97.443 Y127.754 E0.78722
G1 X96.591 Y127.600 E0.02714
G1 X95.829 Y127.189 E0.02714
G1 X95.380 Y126.758 E0.01950
G1 X95.040 Y126.238 E0.01950
G1 X94.826 Y125.658 E0.01937
G1 X94.746 Y125.042 E0.01950
G1 X94.746 Y94.951 E0.94348
G1 X94.899 Y94.095 E0.02727
G1 X95.311 Y93.329 E0.02727
G1 X95.726 Y92.893 E0.01886
G1 X96.229 Y92.557 E0.01899
G1 X96.790 Y92.339 E0.01886
G1 X97.389 Y92.248 E0.01899
G1 X122.504 Y92.246 E0.78748
G1 X123.517 Y92.440 E0.03233
G1 X124.387 Y92.994 E0.03233
G1 X124.957 Y93.780 E0.03045
G1 X124.655 Y93.997 F9000.000
G1 F2400.000
G1 X124.873 Y94.869 E0.02819
G1 X124.877 Y125.038 E0.94592
G1 X124.744 Y125.785 E0.02378
G1 X124.382 Y126.452 E0.02378
G1 X124.012 Y126.834 E0.01669
G1 X123.563 Y127.126 E0.01680
G1 X123.063 Y127.309 E0.01669
G1 X122.535 Y127.377 E0.01668
G1 X97.454 Y127.377 E0.78640
G1 X96.712 Y127.243 E0.02367
G1 X96.048 Y126.882 E0.02367
G1 X95.666 Y126.512 E0.01669
G1 X95.374 Y126.063 E0.01680
G1 X95.191 Y125.563 E0.01669
G1 X95.123 Y125.032 E0.01680
G1 X95.123 Y94.962 E0.94281
G1 X95.256 Y94.215 E0.02378
G1 X95.618 Y93.548 E0.02378
G1 X95.979 Y93.173 E0.01633
G1 X96.417 Y92.884 E0.01645
G1 X96.904 Y92.699 E0.01633
G1 X97.419 Y92.624 E0.01633
G1 X122.504 Y92.623 E0.78652
G1 X123.381 Y92.792 E0.02802
G1 X124.134 Y93.274 E0.02802
G1 X124.620 Y93.949 E0.02608
G1 E-3.50000 F3600.00000
G1 F7200.000
G1 X124.873 Y94.869 E-0.45367
G1 X124.874 Y96.914 E-0.97134
G1 E-0.07500 F3600.00000
G1 X121.868 Y95.632 F9000.000
G1 E5.00000 F2400.00000
G1 X121.868 Y124.368 E0.97267
G1 X98.132 Y124.368 E0.80343
G1 X98.132 Y95.632 E0.97267
G1 X121.808 Y95.632 E0.80140
G1 X122.275 Y95.225 F9000.000
G1 F1500.000
G1 X122.275 Y124.775 E1.00023
G1 X97.725 Y124.775 E0.83099
G1 X97.725 Y95.225 E1.00023
G1 X122.215 Y95.225 E0.82896
G1 X122.183 Y95.614 F9000.000
G1 E-3.50000 F3600.00000
G1 F7200.000
G1 X122.221 Y98.225 E-1.42500
G1 E-0.07500 F3600.00000
G1 X120.919 Y124.246 F9000.000
G1 E5.00000 F2400.00000
G1 X121.563 Y123.602 E0.03097
G1 X121.563 Y123.023 E0.01968
G1 X120.523 Y124.063 E0.04999
G1 X119.945 Y124.063 E0.01968
G1 X121.563 Y122.445 E0.07782
G1 X121.563 Y121.866 E0.01968
G1 X119.366 Y124.063 E0.10564
G1 X118.788 Y124.063 E0.01968
G1 X121.563 Y121.288 E0.13347
G1 X121.563 Y120.709 E0.01968
G1 X118.209 Y124.063 E0.16130
G1 X117.631 Y124.063 E0.01968
G1 X121.563 Y120.131 E0.18912
G1 X121.563 Y119.552 E0.01968
G1 X117.052 Y124.063 E0.21695
G1 X116.474 Y124.063 E0.01968
G1 X121.563 Y118.974 E0.24478
G1 X121.563 Y118.395 E0.01968
G1 X115.895 Y124.063 E0.27260
G1 X115.317 Y124.063 E0.01968
G1 X121.563 Y117.817 E0.30043
G1 X121.563 Y117.238 E0.01968
G1 X114.738 Y124.063 E0.32826
G1 X114.160 Y124.063 E0.01968
G1 X121.563 Y116.660 E0.35608
G1 X121.563 Y116.081 E0.01968
G1 X113.581 Y124.063 E0.38391
G1 X113.003 Y124.063 E0.01968
G1 X121.563 Y115.503 E0.41174
G1 X121.563 Y114.924 E0.01968
G1 X112.424 Y124.063 E0.43956
G1 X111.846 Y124.063 E0.01968
G1 X121.563 Y114.346 E0.46739
G1 X121.563 Y113.767 E0.01968
G1 X111.267 Y124.063 E0.49522
G1 X110.689 Y124.063 E0.01968
G1 X121.563 Y113.189 E0.52305
G1 X121.563 Y112.610 E0.01968
G1 X110.110 Y124.063 E0.55087
G1 X109.532 Y124.063 E0.01968
G1 X121.563 Y112.032 E0.57870
G1 X121.563 Y111.453 E0.01968
G1 X108.953 Y124.063 E0.60653
G1 X108.375 Y124.063 E0.01968
G1 X121.563 Y110.875 E0.63435
G1 X121.563 Y110.296 E0.01968
G1 X107.796 Y124.063 E0.66218
G1 X107.218 Y124.063 E0.01968
G1 X121.563 Y109.718 E0.69001
G1 X121.563 Y109.139 E0.01968
G1 X106.639 Y124.063 E0.71783
G1 X106.061 Y124.063 E0.01968
G1 X121.563 Y108.561 E0.74566
G1 X121.563 Y107.983 E0.01968
G1 X105.482 Y124.063 E0.77349
G1 X104.904 Y124.063 E0.01968
G1 X121.563 Y107.404 E0.80131
G1 X121.563 Y106.826 E0.01968
G1 X104.326 Y124.063 E0.82914
G1 X103.747 Y124.063 E0.01968
G1 X121.563 Y106.247 E0.85697
G1 X121.563 Y105.669 E0.01968
G1 X103.169 Y124.063 E0.88479
G1 X102.590 Y124.063 E0.01968
G1 X121.563 Y105.090 E0.91262
G1 X121.563 Y104.512 E0.01968
G1 X102.012 Y124.063 E0.94045
G1 X101.433 Y124.063 E0.01968
G1 X121.563 Y103.933 E0.96827
G1 X121.563 Y103.355 E0.01968
G1 X100.855 Y124.063 E0.99610
G1 X100.276 Y124.063 E0.01968
G1 X121.563 Y102.776 E1.02393
G1 X121.563 Y102.198 E0.01968
G1 X99.698 Y124.063 E1.05176
G1 X99.119 Y124.063 E0.01968
G1 X121.563 Y101.619 E1.07958
G1 X121.563 Y101.041 E0.01968
G1 X98.541 Y124.063 E1.10741
G1 X98.437 Y124.063 E0.00351
G1 X98.437 Y123.587 E0.01617
G1 X121.563 Y100.462 E1.11237
G1 X121.563 Y99.884 E0.01968
G1 X98.437 Y123.009 E1.11237
G1 X98.437 Y122.430 E0.01968
G1 X121.563 Y99.305 E1.11237
G1 X121.563 Y98.727 E0.01968
G1 X98.437 Y121.852 E1.11237
G1 X98.437 Y121.273 E0.01968
G1 X121.563 Y98.148 E1.11237
G1 X121.563 Y97.570 E0.01968
G1 X98.437 Y120.695 E1.11237
G1 X98.437 Y120.116 E0.01968
G1 X121.563 Y96.991 E1.11237
G1 X121.563 Y96.413 E0.01968
G1 X98.437 Y119.538 E1.11237
G1 X98.437 Y118.959 E0.01968
G1 X121.459 Y95.937 E1.10740
G1 X120.881 Y95.937 E0.01968
G1 X98.437 Y118.381 E1.07958
G1 X98.437 Y117.802 E0.01968
G1 X120.302 Y95.937 E1.05175
G1 X119.724 Y95.937 E0.01968
G1 X98.437 Y117.224 E1.02392
G1 X98.437 Y116.645 E0.01968
G1 X119.145 Y95.937 E0.99610
G1 X118.567 Y95.937 E0.01968
G1 X98.437 Y116.067 E0.96827
G1 X98.437 Y115.488 E0.01968
G1 X117.988 Y95.937 E0.94044
G1 X117.410 Y95.937 E0.01968
G1 X98.437 Y114.910 E0.91262
G1 X98.437 Y114.331 E0.01968
G1 X116.831 Y95.937 E0.88479
G1 X116.253 Y95.937 E0.01968
G1 X98.437 Y113.753 E0.85696
G1 X98.437 Y113.174 E0.01968
G1 X115.674 Y95.937 E0.82913
G1 X115.096 Y95.937 E0.01968
G1 X98.437 Y112.596 E0.80131
G1 X98.437 Y112.017 E0.01968
G1 X114.517 Y95.937 E0.77348
G1 X113.939 Y95.937 E0.01968
G1 X98.437 Y111.439 E0.74565
G1 X98.437 Y110.860 E0.01968
G1 X113.360 Y95.937 E0.71783
G1 X112.782 Y95.937 E0.01968
G1 X98.437 Y110.282 E0.69000
G1 X98.437 Y109.703 E0.01968
G1 X112.203 Y95.937 E0.66217
G1 X111.625 Y95.937 E0.01968
G1 X98.437 Y109.125 E0.63435
G1 X98.437 Y108.546 E0.01968
G1 X111.046 Y95.937 E0.60652
G1 X110.468 Y95.937 E0.01968
G1 X98.437 Y107.968 E0.57869
G1 X98.437 Y107.389 E0.01968
G1 X109.889 Y95.937 E0.55087
G1 X109.311 Y95.937 E0.01968
G1 X98.437 Y106.811 E0.52304
G1 X98.437 Y106.232 E0.01968
G1 X108.732 Y95.937 E0.49521
